resources/icons/cisco/mux.svg

<?xml version="1.0" encoding="UTF-8"?>
<svg xmlns="http://www.w3.org/2000/svg" xmlns:xlink="http://www.w3.org/1999/xlink" width="258pt" height="200pt" viewBox="0 0 258 200" version="1.1">
<g id="surface1">
<path style=" stroke:none;fill-rule:nonzero;fill:rgb(0.784314%,43.921569%,62.352941%);fill-opacity:1;" d="M 3.546875 187.613281 L 38.273438 187.613281 L 38.273438 39.464844 L 3.546875 39.464844 Z M 3.546875 187.613281 "/>
<path style="fill:none;stroke-width:0.5;stroke-linecap:butt;stroke-linejoin:miter;stroke:rgb(100%,100%,100%);stroke-opacity:1;stroke-miterlimit:4;" d="M 0.604893 31.89293 L 6.527253 31.89293 L 6.527253 6.707695 L 0.604893 6.707695 Z M 0.604893 31.89293 " transform="matrix(5.863636,0,0,5.882353,0,0)"/>
<path style=" stroke:none;fill-rule:nonzero;fill:rgb(0.784314%,43.921569%,62.352941%);fill-opacity:1;" d="M 38.285156 187.613281 L 73.039062 187.613281 L 73.039062 39.464844 L 38.289062 39.464844 L 38.289062 187.613281 Z M 38.285156 187.613281 "/>
<path style="fill:none;stroke-width:0.5;stroke-linecap:butt;stroke-linejoin:miter;stroke:rgb(100%,100%,100%);stroke-opacity:1;stroke-miterlimit:4;" d="M 6.529251 31.89293 L 12.456274 31.89293 L 12.456274 6.707695 L 6.529918 6.707695 L 6.529918 31.89293 Z M 6.529251 31.89293 " transform="matrix(5.863636,0,0,5.882353,0,0)"/>
<path style=" stroke:none;fill-rule:nonzero;fill:rgb(0.784314%,43.921569%,62.352941%);fill-opacity:1;" d="M 73.039062 187.613281 L 107.796875 187.613281 L 107.796875 39.464844 L 73.039062 39.464844 Z M 73.039062 187.613281 "/>
<path style="fill:none;stroke-width:0.5;stroke-linecap:butt;stroke-linejoin:miter;stroke:rgb(100%,100%,100%);stroke-opacity:1;stroke-miterlimit:4;" d="M 12.456274 31.89293 L 18.383963 31.89293 L 18.383963 6.707695 L 12.456274 6.707695 Z M 12.456274 31.89293 " transform="matrix(5.863636,0,0,5.882353,0,0)"/>
<path style=" stroke:none;fill-rule:nonzero;fill:rgb(0.784314%,43.921569%,62.352941%);fill-opacity:1;" d="M 107.796875 187.613281 L 142.550781 187.613281 L 142.550781 39.464844 L 107.796875 39.464844 Z M 107.796875 187.613281 "/>
<path style="fill:none;stroke-width:0.5;stroke-linecap:butt;stroke-linejoin:miter;stroke:rgb(100%,100%,100%);stroke-opacity:1;stroke-miterlimit:4;" d="M 18.383963 31.89293 L 24.310986 31.89293 L 24.310986 6.707695 L 18.383963 6.707695 Z M 18.383963 31.89293 " transform="matrix(5.863636,0,0,5.882353,0,0)"/>
<path style=" stroke:none;fill-rule:nonzero;fill:rgb(0.784314%,43.921569%,62.352941%);fill-opacity:1;" d="M 142.550781 187.613281 L 177.308594 187.613281 L 177.308594 39.464844 L 142.546875 39.464844 L 142.546875 187.613281 Z M 142.550781 187.613281 "/>
<path style="fill:none;stroke-width:0.5;stroke-linecap:butt;stroke-linejoin:miter;stroke:rgb(100%,100%,100%);stroke-opacity:1;stroke-miterlimit:4;" d="M 24.310986 31.89293 L 30.238675 31.89293 L 30.238675 6.707695 L 24.31032 6.707695 L 24.31032 31.89293 Z M 24.310986 31.89293 " transform="matrix(5.863636,0,0,5.882353,0,0)"/>
<path style=" stroke:none;fill-rule:nonzero;fill:rgb(0.784314%,43.921569%,62.352941%);fill-opacity:1;" d="M 177.308594 187.613281 L 212.0625 187.613281 L 212.0625 39.464844 L 177.308594 39.464844 Z M 177.308594 187.613281 "/>
<path style="fill:none;stroke-width:0.5;stroke-linecap:butt;stroke-linejoin:miter;stroke:rgb(100%,100%,100%);stroke-opacity:1;stroke-miterlimit:4;" d="M 30.238675 31.89293 L 36.165698 31.89293 L 36.165698 6.707695 L 30.238675 6.707695 Z M 30.238675 31.89293 " transform="matrix(5.863636,0,0,5.882353,0,0)"/>
<path style=" stroke:none;fill-rule:nonzero;fill:rgb(0.784314%,43.921569%,62.352941%);fill-opacity:1;" d="M 212.070312 187.613281 L 248.089844 151.507812 L 248.089844 3.300781 L 39.566406 3.300781 L 3.546875 39.433594 L 212.070312 39.433594 L 212.070312 187.613281 "/>
<path style="fill:none;stroke-width:0.5;stroke-linecap:butt;stroke-linejoin:miter;stroke:rgb(100%,100%,100%);stroke-opacity:1;stroke-miterlimit:4;" d="M 36.16703 31.894922 L 42.309896 25.755 L 42.309896 0.561797 L 6.747759 0.561797 L 0.604893 6.703047 L 36.16703 6.703047 Z M 36.16703 31.894922 " transform="matrix(5.863636,0,0,5.882353,0,0)"/>
<path style=" stroke:none;fill-rule:nonzero;fill:rgb(0.784314%,43.921569%,62.352941%);fill-opacity:1;" d="M 212.070312 39.433594 L 248.089844 3.292969 "/>
<path style="fill:none;stroke-width:0.5;stroke-linecap:butt;stroke-linejoin:miter;stroke:rgb(100%,100%,100%);stroke-opacity:1;stroke-miterlimit:4;" d="M 36.16703 6.703047 L 42.309896 0.559805 M 36.16703 19.300312 L 0.604893 19.300312 M 1.640141 21.184922 L 5.494004 21.184922 M 1.640141 22.669766 L 5.494004 22.669766 M 1.640141 24.153945 L 5.494004 24.153945 M 1.640141 25.640117 L 5.494004 25.640117 M 1.640141 27.122969 L 5.494004 27.122969 M 7.569162 21.184922 L 11.421027 21.184922 M 7.569162 22.669766 L 11.421027 22.669766 M 7.569162 24.153945 L 11.421027 24.153945 M 7.569162 25.640117 L 11.421027 25.640117 M 7.569162 27.122969 L 11.421027 27.122969 " transform="matrix(5.863636,0,0,5.882353,0,0)"/>
</g>
</svg>

<svg xmlns="http://www.w3.org/2000/svg" viewBox="0 0 43.75 33.75" height="33.75" width="43.75"><path d="M.605 31.894h5.922V6.709H.605v25.185z" fill="#02709f"/><path d="M.605 31.893h5.922V6.708H.605v25.185z" fill="none" stroke="#fff" stroke-width=".5"/><path d="M6.529 31.894h5.927V6.709H6.53v25.185z" fill="#02709f"/><path d="M6.529 31.893h5.927V6.708H6.53v25.185z" fill="none" stroke="#fff" stroke-width=".5"/><path d="M12.456 31.894h5.928V6.709h-5.928v25.185z" fill="#02709f"/><path d="M12.456 31.893h5.928V6.708h-5.928v25.185z" fill="none" stroke="#fff" stroke-width=".5"/><path d="M18.384 31.894h5.927V6.709h-5.927v25.185z" fill="#02709f"/><path d="M18.384 31.893h5.927V6.708h-5.927v25.185z" fill="none" stroke="#fff" stroke-width=".5"/><path d="M24.311 31.894h5.928V6.709H24.31v25.185z" fill="#02709f"/><path d="M24.311 31.893h5.928V6.708H24.31v25.185z" fill="none" stroke="#fff" stroke-width=".5"/><path d="M30.239 31.894h5.927V6.709h-5.927v25.185z" fill="#02709f"/><path d="M30.239 31.893h5.927V6.708h-5.927v25.185z" fill="none" stroke="#fff" stroke-width=".5"/><path d="M36.167 31.894l6.143-6.138V.561H6.748L.605 6.704h35.562v25.19" fill="#02709f"/><path d="M36.167 31.895l6.143-6.14V.562H6.748L.605 6.703h35.562v25.192z" fill="none" stroke="#fff" stroke-width=".5"/><path d="M36.167 6.704L42.31.56" fill="#02709f"/><path d="M36.167 6.703L42.31.56M36.167 19.3H.605M1.64 21.185h3.854M1.64 22.67h3.854M1.64 24.154h3.854M1.64 25.64h3.854M1.64 27.123h3.854M7.569 21.185h3.852M7.569 22.67h3.852M7.569 24.154h3.852M7.569 25.64h3.852M7.569 27.123h3.852" fill="none" stroke="#fff" stroke-width=".5"/></svg>
